icon/pk/wechat.svg

<svg viewBox="0 0 48 48" fill="none" xmlns="http://www.w3.org/2000/svg" height="1em" width="1em">
  <path fill-rule="evenodd" clip-rule="evenodd" d="M36.9974 21.7112C36.8434 13.0079 29.7401 6 21 6C12.1634 6 5 13.1634 5 22C5 26.1701 6.59531 29.9676 9.20892 32.8154L8.01043 40.0257L15.125 36.9699C18.2597 38.0122 21.218 38.2728 24 37.7516" fill="#2F88FF"/>
  <path d="M36.9974 21.7112C36.8434 13.0079 29.7401 6 21 6C12.1634 6 5 13.1634 5 22C5 26.1701 6.59531 29.9676 9.20892 32.8154L8.01043 40.0257L15.125 36.9699C18.2597 38.0122 21.218 38.2728 24 37.7516" stroke="black" stroke-width="4" stroke-linecap="round" stroke-linejoin="round"/>
  <path d="M15.125 20.4667C16.3676 20.4667 17.375 19.4519 17.375 18.2C17.375 16.9482 16.3676 15.9333 15.125 15.9333C13.8824 15.9333 12.875 16.9482 12.875 18.2C12.875 19.4519 13.8824 20.4667 15.125 20.4667Z" fill="white"/>
  <path d="M24.125 20.4667C25.3676 20.4667 26.375 19.4519 26.375 18.2C26.375 16.9482 25.3676 15.9333 24.125 15.9333C22.8824 15.9333 21.875 16.9482 21.875 18.2C21.875 19.4519 22.8824 20.4667 24.125 20.4667Z" fill="white"/>
  <path fill-rule="evenodd" clip-rule="evenodd" d="M38.7618 39.9293C37.0135 41.2302 34.8467 42 32.5 42C26.701 42 22 37.299 22 31.5C22 25.701 26.701 21 32.5 21C38.299 21 43 25.701 43 31.5C43 33.0997 42.6423 34.6159 42.0024 35.9728" fill="#2F88FF"/>
  <path d="M38.7618 39.9293C37.0135 41.2302 34.8467 42 32.5 42C26.701 42 22 37.299 22 31.5C22 25.701 26.701 21 32.5 21C38.299 21 43 25.701 43 31.5C43 33.0997 42.6423 34.6159 42.0024 35.9728" stroke="black" stroke-width="4" stroke-linecap="round" stroke-linejoin="round"/>
  <path fill-rule="evenodd" clip-rule="evenodd" d="M42.0024 35.9728L43 42L38.7618 39.9293" fill="#2F88FF"/>
  <path d="M42.0024 35.9728L43 42L38.7618 39.9293" stroke="black" stroke-width="4" stroke-linecap="round" stroke-linejoin="round"/>
  <path d="M35.6875 30.7999C34.7555 30.7999 34 30.0388 34 29.0999C34 28.161 34.7555 27.3999 35.6875 27.3999C36.6195 27.3999 37.375 28.161 37.375 29.0999C37.375 30.0388 36.6195 30.7999 35.6875 30.7999Z" fill="white"/>
  <path d="M28.9375 30.7999C28.0055 30.7999 27.25 30.0388 27.25 29.0999C27.25 28.161 28.0055 27.3999 28.9375 27.3999C29.8695 27.3999 30.625 28.161 30.625 29.0999C30.625 30.0388 29.8695 30.7999 28.9375 30.7999Z" fill="white"/>
</svg>

<svg width="48" height="48" fill="none" xmlns="http://www.w3.org/2000/svg"><path fill-rule="evenodd" clip-rule="evenodd" d="M36.997 21.711C36.843 13.008 29.74 6 21 6 12.163 6 5 13.163 5 22c0 4.17 1.595 7.968 4.209 10.815l-1.199 7.21 7.115-3.055c3.135 1.042 6.093 1.303 8.875.782" fill="#2F88FF"/><path d="M36.997 21.711C36.843 13.008 29.74 6 21 6 12.163 6 5 13.163 5 22c0 4.17 1.595 7.968 4.209 10.815l-1.199 7.21 7.115-3.055c3.135 1.042 6.093 1.303 8.875.782" stroke="#000" stroke-width="4" stroke-linecap="round" stroke-linejoin="round"/><path d="M15.125 20.467a2.258 2.258 0 0 0 2.25-2.267 2.258 2.258 0 0 0-2.25-2.267 2.258 2.258 0 0 0-2.25 2.267 2.258 2.258 0 0 0 2.25 2.267ZM24.125 20.467a2.258 2.258 0 0 0 2.25-2.267 2.258 2.258 0 0 0-2.25-2.267 2.258 2.258 0 0 0-2.25 2.267 2.258 2.258 0 0 0 2.25 2.267Z" fill="#fff"/><path fill-rule="evenodd" clip-rule="evenodd" d="M38.762 39.93A10.453 10.453 0 0 1 32.5 42C26.701 42 22 37.299 22 31.5S26.701 21 32.5 21 43 25.701 43 31.5c0 1.6-.358 3.116-.998 4.473" fill="#2F88FF"/><path d="M38.762 39.93A10.453 10.453 0 0 1 32.5 42C26.701 42 22 37.299 22 31.5S26.701 21 32.5 21 43 25.701 43 31.5c0 1.6-.358 3.116-.998 4.473" stroke="#000" stroke-width="4" stroke-linecap="round" stroke-linejoin="round"/><path fill-rule="evenodd" clip-rule="evenodd" d="M42.002 35.973 43 42l-4.238-2.07" fill="#2F88FF"/><path d="M42.002 35.973 43 42l-4.238-2.07" stroke="#000" stroke-width="4" stroke-linecap="round" stroke-linejoin="round"/><path d="M35.688 30.8A1.694 1.694 0 0 1 34 29.1c0-.939.755-1.7 1.688-1.7.931 0 1.687.761 1.687 1.7s-.755 1.7-1.688 1.7ZM28.938 30.8a1.694 1.694 0 0 1-1.688-1.7c0-.939.756-1.7 1.688-1.7.931 0 1.687.761 1.687 1.7s-.756 1.7-1.688 1.7Z" fill="#fff"/></svg>
